X: 69
T:Off She Goes. GHW.069
M:6/8
L:1/8
Q:120
S:George H.Watson,MS,Swanton Abbott,Norfolk,1850-1880
R:Jig
O:England
A:Norfolk
Z:vmp.Taz Tarry
K:D
A|F2A G2B|ABc d3|F2AG2B|AFD E3|!
F2AG2B|ABc d2e|f2d({ef}g2)f|edc d2:|!
|:g|(f/g/a)f d2f|(e/f/g)e c2 e|(f/g/a)fd2f|edc d2 g|!
(f/g/a)f d2f|(e/f/g)e c2 e|d2f a2 f|gec d2:|
